X: 409
T: Bir Rum Dilbere
C: Tanburî Mustafa Çavuş
O: Turkey
F: http://compmusic.upf.edu/node/140
N: karcigar--sarki--aksak--bir_rum_dilbere--tanburi_mustafa_cavus
N: makam= karcigar
N: form= sarki
N: usul= aksak = 9/8
M: 9/8
L: 1/16
K: C _2/4B _3/4e ^3/4f 
Q: 1/4=57
%%MIDI tuningsystem comma53
d2z2^f2=edd4fed2 | c_1/4BA3GB2c2d4_7/8e4d2e3da2g^ffeed | 
w:   |   | 
^f4_7/8edd2z2f2=edd4fed2c_1/4BA3GB2c2 | \
w:   | 
d4_7/8e4d2e3da2  | 
w:   | 
g^ff_7/8eedf4edd3c | d2_7/8e2^f2g2_bagfedd3c_1/4B2c2d4gfedc2 | 
w:   |   | 
d3cd^f_7/8eddcc_1/4Bd2c2  | _1/4B2A3GB2c2d2c2=f=e | 
w:   |   | 
d2c_1/4BA3Gd2g2=e2d2  | ag=f=ed2c3_1/4Bc2d2c2 | \
w:   |   | 
_1/4B2B2A2G2A6^fg  | 
w:   | 
ag^fga3gfga2z2f2 | g2a4a3g^fga2z2  | \
w:   |   | 
a2_b2b4b2a2g2^f2 | 
w:   | 
_e2e2d2d4c'4_ba  | a3g^f2g2a4a3g | ^fga2z2a2_b2b4b2  | 
w:   |   |   | 
a2g2^f2_e2d2g2feed | d3^f_7/8ede2z2d2e2f2  | \
w:   |   | 
g2_bag^f_7/8edd3c_1/4B2c2 | 
w:   | 
d4g^f_7/8edc2d3cdf  | _7/8eddcc_1/4Bd2c2B2A3G | 
w:   |   | 
_1/4B2c2d2c2=f=ed2cBA2  | G2d2g2=e2d2ag=fed2 | \
w:   |   | 
c3_1/4Bc2d2c2B2B2A2  | 
w:   | 
G2A6G2c2_1/4BAA4A2B2c4_7/8e2d2c2  | \
w:   | 
d2_7/8e2^f2e2f4g2f2 | _7/8e2d4c2d3e=f2g2  | 
w:   |   | 
a2_b2g2=f2g2a6 | g2ac'_1/4baa4a2_7/8bag2  | \
w:   |   | 
^f4gf_7/8e2d4e2gf | 
w:   | 
_7/8e2d2c2_1/4BAG2d4d2  | A3_1/4Bc2d2_7/8e2^f2gfed | \
w:   |   | 
c2c3_1/4B^f_7/8edccBBAA4A2|
w:   | 


